src/main/resources/icons/debugger/classLevelWatch.svg

<?xml version="1.0" encoding="UTF-8" standalone="no"?>
<svg
   xmlns:dc="http://purl.org/dc/elements/1.1/"
   xmlns:cc="http://creativecommons.org/ns#"
   xmlns:rdf="http://www.w3.org/1999/02/22-rdf-syntax-ns#"
   xmlns:svg="http://www.w3.org/2000/svg"
   xmlns="http://www.w3.org/2000/svg"
   xmlns:xlink="http://www.w3.org/1999/xlink"
   xmlns:sodipodi="http://sodipodi.sourceforge.net/DTD/sodipodi-0.dtd"
   xmlns:inkscape="http://www.inkscape.org/namespaces/inkscape"
   version="1.1"
   width="16px"
   height="16px"
   viewBox="0 0 24 24"
   fill="#4FC3F7"
   id="svg6"
   sodipodi:docname="classLevelWatch.svg"
   inkscape:version="0.92.3 (2405546, 2018-03-11)">
  <metadata
     id="metadata12">
    <rdf:RDF>
      <cc:Work
         rdf:about="">
        <dc:format>image/svg+xml</dc:format>
        <dc:type
           rdf:resource="http://purl.org/dc/dcmitype/StillImage" />
      </cc:Work>
    </rdf:RDF>
  </metadata>
  <defs
     id="defs10">
    <linearGradient
       inkscape:collect="always"
       xlink:href="#linearGradient6020-7-5"
       id="linearGradient6022"
       x1="8.3356228"
       y1="21.034628"
       x2="17.712017"
       y2="-2.1378632"
       gradientUnits="userSpaceOnUse" />
    <linearGradient
       inkscape:collect="always"
       id="linearGradient6020-7-5">
      <stop
         stop-color="#870ad2"
         style="stop-opacity:1"
         offset="0"
         themedStart="true"
         id="stop6016" />
      <stop
         stop-color="#f667ff"
         style=";stop-opacity:1"
         offset="1"
         themedStop="true"
         id="stop6018" />
    </linearGradient>
  </defs>
  <sodipodi:namedview
     pagecolor="#ffffff"
     bordercolor="#666666"
     borderopacity="1"
     objecttolerance="10"
     gridtolerance="10"
     guidetolerance="10"
     inkscape:pageopacity="0"
     inkscape:pageshadow="2"
     inkscape:window-width="817"
     inkscape:window-height="480"
     id="namedview8"
     showgrid="false"
     inkscape:zoom="2.6074563"
     inkscape:cx="16.96915"
     inkscape:cy="-24.010192"
     inkscape:window-x="0"
     inkscape:window-y="27"
     inkscape:window-maximized="0"
     inkscape:current-layer="svg6" />
  <path
     inkscape:connector-curvature="0"
     d="m 21,16.5 c 0,0.38 -0.21,0.71 -0.53,0.88 l -7.9,4.439999 c -0.16,0.12 -0.36,0.18 -0.57,0.18 -0.21,0 -0.41,-0.06 -0.57,-0.18 l -7.9000002,-4.44 C 3.2099998,17.21 2.9999998,16.88 2.9999998,16.5 v -9 c 0,-0.38 0.21,-0.71 0.53,-0.88 L 11.43,2.1799997 c 0.16,-0.12 0.36,-0.18 0.57,-0.18 0.21,0 0.41,0.06 0.57,0.18 L 20.47,6.62 C 20.79,6.79 21,7.12 21,7.5 v 9 M 12,4.1499996 6.0399998,7.5 12,10.85 17.96,7.5 Z"
     id="path2-3"
     style="fill:url(#linearGradient6022);fill-opacity:1;fill-rule:nonzero;stroke-width:1" />
  <path
     style="fill:none;stroke:#000000;stroke-width:1.5px;stroke-linecap:butt;stroke-linejoin:miter;stroke-opacity:1"
     d="m 12,10.85 c 0,0 0,0 0,0 z"
     id="path6024"
     inkscape:connector-curvature="0" />
  <path
     themedFill="true"
     style="fill:#870ad2;fill-opacity:1;stroke:#870ad2;stroke-width:0.55049998;stroke-linecap:round;stroke-linejoin:round;stroke-miterlimit:4;stroke-dasharray:none;stroke-opacity:1"
     d="m 12.288573,12.530207 0.08423,9.059729 8.236001,-4.655501 0.09296,-9.176496 z"
     id="path6028"
     inkscape:connector-curvature="0"
     sodipodi:nodetypes="ccccc" />
  <path
     fill="#4A148C"
     d="M7,17H4C2.38,17 0.96,15.74 0.76,14.14L0.26,11.15C0.15,10.3 0.39,9.5 0.91,8.92C1.43,8.34 2.19,8 3,8H9C9.83,8 10.58,8.35 11.06,8.96C11.17,9.11 11.27,9.27 11.35,9.45C11.78,9.36 12.22,9.36 12.64,9.45C12.72,9.27 12.82,9.11 12.94,8.96C13.41,8.35 14.16,8 15,8H21C21.81,8 22.57,8.34 23.09,8.92C23.6,9.5 23.84,10.3 23.74,11.11L23.23,14.18C23.04,15.74 21.61,17 20,17H17C15.44,17 13.92,15.81 13.54,14.3L12.64,11.59C12.26,11.31 11.73,11.31 11.35,11.59L10.43,14.37C10.07,15.82 8.56,17 7,17Z"
     id="path4" />
  <rect
     style="fill:#cc7ffa;fill-opacity:1;stroke:#4983ff;stroke-width:0.049754;stroke-miterlimit:4;stroke-dasharray:none;stroke-opacity:0"
     id="rect868"
     width="1.4765394"
     height="1.4765394"
     x="4.8516998"
     y="14.182231" />
  <rect
     style="fill:#cc7ffa;fill-opacity:1;stroke:#4983ff;stroke-width:0.04975399;stroke-miterlimit:4;stroke-dasharray:none;stroke-opacity:0"
     id="rect868-6"
     width="1.4765394"
     height="1.4765394"
     x="6.328239"
     y="12.705691" />
  <rect
     style="fill:#cc7ffa;fill-opacity:1;stroke:#4983ff;stroke-width:0.04975399;stroke-miterlimit:4;stroke-dasharray:none;stroke-opacity:0"
     id="rect868-6-7"
     width="1.4765394"
     height="1.4765394"
     x="7.8047786"
     y="11.229152" />
  <rect
     style="fill:#cc7ffa;fill-opacity:1;stroke:#4983ff;stroke-width:0.04975399;stroke-miterlimit:4;stroke-dasharray:none;stroke-opacity:0"
     id="rect868-5"
     width="1.4765394"
     height="1.4765394"
     x="17.979563"
     y="14.006746" />
  <rect
     style="fill:#cc7ffa;fill-opacity:1;stroke:#4983ff;stroke-width:0.04975399;stroke-miterlimit:4;stroke-dasharray:none;stroke-opacity:0"
     id="rect868-6-3"
     width="1.4765394"
     height="1.4765394"
     x="19.456102"
     y="12.530207" />
  <rect
     style="fill:#cc7ffa;fill-opacity:1;stroke:#4983ff;stroke-width:0.04975399;stroke-miterlimit:4;stroke-dasharray:none;stroke-opacity:0"
     id="rect868-6-7-5"
     width="1.4765394"
     height="1.4765394"
     x="20.932642"
     y="11.053667" />
</svg>

<?xml version="1.0" encoding="UTF-8"?><!DOCTYPE svg PUBLIC "-//W3C//DTD SVG 1.1//EN"
        "http://www.w3.org/Graphics/SVG/1.1/DTD/svg11.dtd">
<svg xmlns="http://www.w3.org/2000/svg" xmlns:xlink="http://www.w3.org/1999/xlink" version="1.1" width="16px"
     height="16px"
     viewBox="0 0 24 24" fill="#4FC3F7">
    <path d="M21,16.5C21,16.88 20.79,17.21 20.47,17.38L12.57,21.82C12.41,21.94 12.21,22 12,22C11.79,22 11.59,21.94 11.43,21.82L3.53,17.38C3.21,17.21 3,16.88 3,16.5V7.5C3,7.12 3.21,6.79 3.53,6.62L11.43,2.18C11.59,2.06 11.79,2 12,2C12.21,2 12.41,2.06 12.57,2.18L20.47,6.62C20.79,6.79 21,7.12 21,7.5V16.5M12,4.15L6.04,7.5L12,10.85L17.96,7.5L12,4.15Z"/>
    <path fill="#4A148C"
          d="M7,17H4C2.38,17 0.96,15.74 0.76,14.14L0.26,11.15C0.15,10.3 0.39,9.5 0.91,8.92C1.43,8.34 2.19,8 3,8H9C9.83,8 10.58,8.35 11.06,8.96C11.17,9.11 11.27,9.27 11.35,9.45C11.78,9.36 12.22,9.36 12.64,9.45C12.72,9.27 12.82,9.11 12.94,8.96C13.41,8.35 14.16,8 15,8H21C21.81,8 22.57,8.34 23.09,8.92C23.6,9.5 23.84,10.3 23.74,11.11L23.23,14.18C23.04,15.74 21.61,17 20,17H17C15.44,17 13.92,15.81 13.54,14.3L12.64,11.59C12.26,11.31 11.73,11.31 11.35,11.59L10.43,14.37C10.07,15.82 8.56,17 7,17Z"/>
</svg>
